!!!COM: Mozart
!!!OTL: 12 Variations on "Ah Vous dirais-je, Maman" for the Piano
!!!Variation: 12 c
**function	**harm	**kern	**kern
*	*	*clefF4	*clefG2
*	*	*k[]	*k[]
*M3/4	*M3/4	*M3/4	*M3/4
*C:	*C:	*C:	*C:
4T	4ib	16EE-LL	(8.ggL
.	.	16E-	.
.	.	16D	.
.	.	16E-JJ)	32ff#LL
.	.	.	32ggJJJ
=313	=313	=313	=313
2T	2V/V	(16DDLL	4ff#)
.	.	16D	.
.	.	16C#	.
.	.	16DJJ	.
.	.	16ELL	4r
.	.	16D	.
.	.	16C#	.
.	.	16DJJ	.
4T	4viioD7	16BBLL	(8.ffL
.	.	16B	.
.	.	16A	.
.	.	16BJJ)	32eeLL
.	.	.	32ffJJJ
=314	=314	=314	=314
2T	2I	(16CCLL	4ee)
.	.	16C	.
.	.	16BB	.
.	.	16CJJ	.
.	.	16DLL	4r
.	.	16C	.
.	.	16BB	.
.	.	16CJJ	.
4T	4vi	16AAALL	(8.cc
.	.	16AA	.
.	.	16GG#	.
.	.	16AAJJ)	32b
.	.	.	32cc
=315	=315	=315	=315
2P	2iib	(16FFFLL	4dd)
.	.	16FF	.
.	.	16EE	.
.	.	16FFJJ	.
.	.	16GGLL	4r
.	.	16FF	.
.	.	16EE	.
.	.	16FFJJ)	.
4D	4V7	(16GGGLL	4d 4f 4b
.	.	16GG	.
.	.	16FF#	.
.	.	16GGJJ)	.
=316	=316	=316	=316
2.T	2.I	4CC 4EE 4C	(16cc
.	.	.	16g
.	.	.	16a
.	.	.	16b
.	.	4r	16cc
.	.	.	16dd
.	.	.	16ee
.	.	.	16ff
.	.	4r	16gg
.	.	.	16aa
.	.	.	16bb
.	.	.	16ccc
=317	=317	=317	=317
*	*	*^	*
4.T	4.Cc	2.G	8e	16gg
.	.	.	.	16aa
.	.	.	8d	16ff
.	.	.	.	16gg
.	.	.	8c	16ee
.	.	.	.	16ff
4.T	4.V7	.	8f	16dd
.	.	.	.	16ee
.	.	.	8e	16cc
.	.	.	.	16dd
.	.	.	8d	16b
.	.	.	.	16dd
=318	=318	=318	=318	=318
2.T	2.I	4c	4e	(16cc
.	.	.	.	16g
.	.	.	.	16a
.	.	.	.	16b
.	.	4r	4r	16cc
.	.	.	.	16dd
.	.	.	.	16ee
.	.	.	.	16ff
.	.	4r	4r	16gg
.	.	.	.	16aa
.	.	.	.	16bb
.	.	.	.	16ccc
=319	=319	=319	=319	=319
4.T	4.Cc	2.G	8e	16gg
.	.	.	.	16aa
.	.	.	8d	16ff
.	.	.	.	16gg
.	.	.	8c	16ee
.	.	.	.	16ff
4.T	4.V7	.	8f	16dd
.	.	.	.	16ee
.	.	.	8e	16cc
.	.	.	.	16dd
.	.	.	8d	16b
.	.	.	.	16dd
=320	=320	=320	=320	=320
2.T	2.I	4c	4e	4cc
*	*	*v	*v	*
.	.	4CC 4C	16r
.	.	.	(16c
.	.	.	16B
.	.	.	16c)
.	.	4EE 4E	16r
.	.	.	(16e
.	.	.	16d#
.	.	.	16e)
=321	=321	=321	=321
2.T	2.I	4GG 4G	16r
.	.	.	(16g
.	.	.	16f#
.	.	.	16)
.	.	4EE 4E	16r
.	.	.	(16e
.	.	.	16d#
.	.	.	16e)
.	.	4GG 4G	16r
.	.	.	(16g
.	.	.	16f#
.	.	.	16)
=322	=322	=322	=322
2.T	2.I	4CC 4C	16r
.	.	.	(16cc
.	.	.	16b
.	.	.	16cc)
.	.	4EE 4E	16r
.	.	.	(16ee
.	.	.	16dd#
.	.	.	16ee)
.	.	4GG 4G	16r
.	.	.	(16gg
.	.	.	16ff#
.	.	.	16g)
=323	=323	=323	=323
2.T	2.I	4C 4E 4G 4c	4cc 4ee 4gg 4ccc
.	.	4r	4r
.	.	4r	4r
==	==	==	==
*-	*-	*-	*-
